cellusarquivos/redes/instagram.svg

<svg width="32" height="32" viewBox="0 0 32 32" fill="none" xmlns="http://www.w3.org/2000/svg">
<g clip-path="url(#clip0_18_77)">
<path d="M16 0C11.658 0 11.112 0.02 9.406 0.096C7.7 0.176 6.538 0.444 5.52 0.84C4.45219 1.24164 3.48498 1.87165 2.686 2.686C1.87215 3.48539 1.24221 4.45248 0.84 5.52C0.444 6.536 0.174 7.7 0.096 9.4C0.02 11.11 0 11.654 0 16.002C0 20.346 0.02 20.89 0.096 22.596C0.176 24.3 0.444 25.462 0.84 26.48C1.25 27.532 1.796 28.424 2.686 29.314C3.574 30.204 4.466 30.752 5.518 31.16C6.538 31.556 7.698 31.826 9.402 31.904C11.11 31.98 11.654 32 16 32C20.346 32 20.888 31.98 22.596 31.904C24.298 31.824 25.464 31.556 26.482 31.16C27.5491 30.7582 28.5156 30.1282 29.314 29.314C30.204 28.424 30.75 27.532 31.16 26.48C31.554 25.462 31.824 24.3 31.904 22.596C31.98 20.89 32 20.346 32 16C32 11.654 31.98 11.11 31.904 9.402C31.824 7.7 31.554 6.536 31.16 5.52C30.7578 4.45245 30.1279 3.48535 29.314 2.686C28.5153 1.87135 27.548 1.24129 26.48 0.84C25.46 0.444 24.296 0.174 22.594 0.096C20.886 0.02 20.344 0 15.996 0H16.002H16ZM14.566 2.884H16.002C20.274 2.884 20.78 2.898 22.466 2.976C24.026 3.046 24.874 3.308 25.438 3.526C26.184 3.816 26.718 4.164 27.278 4.724C27.838 5.284 28.184 5.816 28.474 6.564C28.694 7.126 28.954 7.974 29.024 9.534C29.102 11.22 29.118 11.726 29.118 15.996C29.118 20.266 29.102 20.774 29.024 22.46C28.954 24.02 28.692 24.866 28.474 25.43C28.2175 26.1247 27.8081 26.7529 27.276 27.268C26.716 27.828 26.184 28.174 25.436 28.464C24.876 28.684 24.028 28.944 22.466 29.016C20.78 29.092 20.274 29.11 16.002 29.11C11.73 29.11 11.222 29.092 9.536 29.016C7.976 28.944 7.13 28.684 6.566 28.464C5.871 28.2078 5.24225 27.7992 4.726 27.268C4.1935 26.7521 3.78345 26.1233 3.526 25.428C3.308 24.866 3.046 24.018 2.976 22.458C2.9 20.772 2.884 20.266 2.884 15.992C2.884 11.72 2.9 11.216 2.976 9.53C3.048 7.97 3.308 7.122 3.528 6.558C3.818 5.812 4.166 5.278 4.726 4.718C5.286 4.158 5.818 3.812 6.566 3.522C7.13 3.302 7.976 3.042 9.536 2.97C11.012 2.902 11.584 2.882 14.566 2.88V2.884ZM24.542 5.54C24.2899 5.54 24.0402 5.58966 23.8072 5.68615C23.5743 5.78264 23.3626 5.92407 23.1844 6.10236C23.0061 6.28064 22.8646 6.4923 22.7682 6.72525C22.6717 6.95819 22.622 7.20786 22.622 7.46C22.622 7.71214 22.6717 7.96181 22.7682 8.19475C22.8646 8.4277 23.0061 8.63936 23.1844 8.81765C23.3626 8.99593 23.5743 9.13736 23.8072 9.23385C24.0402 9.33034 24.2899 9.38 24.542 9.38C25.0512 9.38 25.5396 9.17772 25.8996 8.81765C26.2597 8.45757 26.462 7.96922 26.462 7.46C26.462 6.95078 26.2597 6.46242 25.8996 6.10236C25.5396 5.74229 25.0512 5.54 24.542 5.54ZM16.002 7.784C14.9121 7.767 13.8298 7.96697 12.818 8.37228C11.8061 8.77759 10.885 9.38014 10.1083 10.1448C9.33157 10.9096 8.71473 11.8211 8.29368 12.8265C7.87264 13.8319 7.6558 14.911 7.6558 16.001C7.6558 17.091 7.87264 18.1701 8.29368 19.1755C8.71473 20.1809 9.33157 21.0924 10.1083 21.8572C10.885 22.6219 11.8061 23.2244 12.818 23.6297C13.8298 24.035 14.9121 24.235 16.002 24.218C18.1591 24.1843 20.2164 23.3038 21.73 21.7665C23.2435 20.2292 24.0918 18.1583 24.0918 16.001C24.0918 13.8437 23.2435 11.7728 21.73 10.2355C20.2164 8.69817 18.1591 7.81765 16.002 7.784ZM16.002 10.666C17.4167 10.666 18.7734 11.228 19.7737 12.2283C20.774 13.2286 21.336 14.5853 21.336 16C21.336 17.4147 20.774 18.7714 19.7737 19.7717C18.7734 20.772 17.4167 21.334 16.002 21.334C14.5873 21.334 13.2306 20.772 12.2303 19.7717C11.23 18.7714 10.668 17.4147 10.668 16C10.668 14.5853 11.23 13.2286 12.2303 12.2283C13.2306 11.228 14.5873 10.666 16.002 10.666Z" fill="url(#paint0_linear_18_77)"/>
</g>
<defs>
<linearGradient id="paint0_linear_18_77" x1="16" y1="0" x2="16" y2="32" gradientUnits="userSpaceOnUse">
<stop stop-color="#C4141E"/>
<stop offset="1" stop-color="#AA0C15"/>
</linearGradient>
<clipPath id="clip0_18_77">
<rect width="32" height="32" fill="white"/>
</clipPath>
</defs>
</svg>

<svg xmlns="http://www.w3.org/2000/svg" width="32" height="32" fill="none"><g clip-path="url(#a)"><path fill="url(#b)" d="M16 0c-4.342 0-4.888.02-6.594.096C7.7.176 6.538.444 5.52.84a7.834 7.834 0 0 0-2.834 1.846A7.854 7.854 0 0 0 .84 5.52C.444 6.536.174 7.7.096 9.4.02 11.11 0 11.654 0 16.002c0 4.344.02 4.888.096 6.594.08 1.704.348 2.866.744 3.884a7.858 7.858 0 0 0 1.846 2.834 7.808 7.808 0 0 0 2.832 1.846c1.02.396 2.18.666 3.884.744C11.11 31.98 11.654 32 16 32s4.888-.02 6.596-.096c1.702-.08 2.868-.348 3.886-.744a7.831 7.831 0 0 0 2.832-1.846 7.858 7.858 0 0 0 1.846-2.834c.394-1.018.664-2.18.744-3.884C31.98 20.89 32 20.346 32 16s-.02-4.89-.096-6.598c-.08-1.702-.35-2.866-.744-3.882a7.853 7.853 0 0 0-1.846-2.834A7.822 7.822 0 0 0 26.48.84C25.46.444 24.296.174 22.594.096 20.886.02 20.344 0 15.996 0h.006H16Zm-1.434 2.884h1.436c4.272 0 4.778.014 6.464.092 1.56.07 2.408.332 2.972.55.746.29 1.28.638 1.84 1.198.56.56.906 1.092 1.196 1.84.22.562.48 1.41.55 2.97.078 1.686.094 2.192.094 6.462s-.016 4.778-.094 6.464c-.07 1.56-.332 2.406-.55 2.97a4.94 4.94 0 0 1-1.198 1.838c-.56.56-1.092.906-1.84 1.196-.56.22-1.408.48-2.97.552-1.686.076-2.192.094-6.464.094s-4.78-.018-6.466-.094c-1.56-.072-2.406-.332-2.97-.552a4.956 4.956 0 0 1-1.84-1.196 4.96 4.96 0 0 1-1.2-1.84c-.218-.562-.48-1.41-.55-2.97-.076-1.686-.092-2.192-.092-6.466 0-4.272.016-4.776.092-6.462.072-1.56.332-2.408.552-2.972.29-.746.638-1.28 1.198-1.84a4.943 4.943 0 0 1 1.84-1.196c.564-.22 1.41-.48 2.97-.552 1.476-.068 2.048-.088 5.03-.09v.004Zm9.976 2.656a1.92 1.92 0 1 0 0 3.841 1.92 1.92 0 0 0 0-3.841Zm-8.54 2.244a8.218 8.218 0 1 0-.256 16.433 8.218 8.218 0 0 0 .256-16.433Zm0 2.882a5.334 5.334 0 1 1 0 10.668 5.334 5.334 0 0 1 0-10.668Z"/></g><defs><linearGradient id="b" x1="16" x2="16" y1="0" y2="32" gradientUnits="userSpaceOnUse"><stop stop-color="#C4141E"/><stop offset="1" stop-color="#AA0C15"/></linearGradient><clipPath id="a"><path fill="#fff" d="M0 0h32v32H0z"/></clipPath></defs></svg>
